static/assets/img/icons/theme/home/bed.svg

<svg height="24" viewBox="0 0 24 24" width="24" xmlns="http://www.w3.org/2000/svg"><g fill="none" fill-rule="evenodd"><path d="m0 0h24v24h-24z" opacity="0"/><g fill="#000"><path d="m4 22h-2c0-2.7614237 2.23857625-4 5-4h10c2.7614237 0 5 1.2385763 5 4h-2c0-1.6568542-1.3431458-2-3-2h-10c-1.65685425 0-3 .3431458-3 2z" fill-rule="nonzero" opacity=".3"/><rect height="6" rx="1" width="22" x="1" y="14"/><path d="m13 13h-2v-1c0-.5522847-.4477153-1-1-1h-4c-.55228475 0-1 .4477153-1 1v1h-1c-.55228475 0-1-.4477153-1-1v-4c0-1.1045695.8954305-2 2-2h14c1.1045695 0 2 .8954305 2 2v4c0 .5522847-.4477153 1-1 1h-1v-1c0-.5522847-.4477153-1-1-1h-4c-.5522847 0-1 .4477153-1 1z" opacity=".3"/></g></g></svg>

<svg width="24px" height="24px" viewBox="0 0 24 24" version="1.1" xmlns="http://www.w3.org/2000/svg" xmlns:xlink="http://www.w3.org/1999/xlink">
    <title>Icon For Bed</title>
    <g stroke="none" stroke-width="1" fill="none" fill-rule="evenodd">
        <rect opacity="0" x="0" y="0" width="24" height="24"></rect>
        <path d="M4,22 L2,22 C2,19.2385763 4.23857625,18 7,18 L17,18 C19.7614237,18 22,19.2385763 22,22 L20,22 C20,20.3431458 18.6568542,20 17,20 L7,20 C5.34314575,20 4,20.3431458 4,22 Z" fill="#000000" fill-rule="nonzero" opacity="0.3"></path>
        <rect fill="#000000" x="1" y="14" width="22" height="6" rx="1"></rect>
        <path d="M13,13 L11,13 L11,12 C11,11.4477153 10.5522847,11 10,11 L6,11 C5.44771525,11 5,11.4477153 5,12 L5,13 L4,13 C3.44771525,13 3,12.5522847 3,12 L3,8 C3,6.8954305 3.8954305,6 5,6 L19,6 C20.1045695,6 21,6.8954305 21,8 L21,12 C21,12.5522847 20.5522847,13 20,13 L19,13 L19,12 C19,11.4477153 18.5522847,11 18,11 L14,11 C13.4477153,11 13,11.4477153 13,12 L13,13 Z" fill="#000000" opacity="0.3"></path>
    </g>
</svg>
